X:4289
L:1/8
M:4/4
K:G
|:"^G" B2 d2 c4 | B2 d2 A4 | B2 d2 c2 Bc | d2 D2 G4 ::"^A" A | Bc dB c2 c2 | Bc dB A2 A2 | 
 Bc dB c2 Bc | d2 D2 G3 ::"^B" A | B2 G2 c4 | B2 G2 A4 | Bc dB c2 Bc | d2 D2 G3 :|

